X:9
T:Scan Tester's 'Hi-Lo' Schottische
C:No.8 from Will Duke's workshop
Q:1/4=140
I:abc2nwc
M:4/4
L:1/8
K:D
d2|:c3/2B/2|A2B3/2c/2 d3/2c/2 d3/2f/2|
a2a2a2 (3fga|b2e2g2 (3fg^g|a2d2f2 (3dcB|A2B3/2c/2 d3/2c/2 d3/2f/2|
a2a2a2 (3fga|b2e2a3/2f/2  (3gfe|d6:|
(3fg^g|:a3/2A/2 A3/2b/2 a3/2A/2 A3/2b/2|
a3/2f/2  (3=gfe d4|A3/2B/2 c3/2d/2 e3/2f/2  (3gfe|
d3/2c/2 d3/2f/2 b2a2||
a3/2A/2 A3/2b/2 a3/2A/2 A3/2b/2|a3/2f/2  (3gfe d4|
A3/2B/2 c3/2d/2 e3/2f/2  (3gfe|d2f2d4:|


